!!!!SEGMENT: pl-cz--ii-188--013_orllowski-michall--missa-ex-g-agnus-dei.krn
!!!cenid: 17xx:1017
!!!COM: Orłowski, Michał
!!!COM-rismID: pe30020336
!!!CDT: ~1700-~1799
!!!CNT:
!!!OPR: Missa ex G
!!!OTL: Agnus Dei
!!!OMV: 013
!!!PDT:
!!!AGN: Sacred; Mass
!!!SMS-siglum: PL-CZ
!!!SMS-shelfmark: II-188
!!!SMS-shelfwork: 001-013 M
!!!SMS-variant:
!!!SMS-altvar:
!!!NIFC-rismSourceID: 300000944
!!!NIFC-islandoraID: pl-cz:32769
!!!URL-pdf-islandora: https://repozytorium.nifc.pl/islandora/object/pl-cz%3A32769/datastream/PDF/view
!!!URL-scan:
!!!ONB-nifc: UWAGA: części Mszy: Kyrie, Gloria, Laudamus, Domine deus, Qui tollis, Quoniam, Cum santo, Patrem, Et incarnaus, Et resurrexit, Sanctus, Benedictus, Agnus dei. UWAGA: w niektórych głosach części zapisane w innej kolejności
!!!AIN: 1 bass 2 cor 1 organ 2 soprn 2 violn
!!!key: G
**kern	**dynam	**kern	**dynam	**kern	**dynam	**kern	**text	**kern	**text	**kern	**text	**kern	**kern
*part8	*part8	*part7	*part7	*part6	*part6	*part5	*part5	*part4	*part4	*part3	*part3	*part2	*part1
*staff8	*	*staff7	*	*staff6	*	*staff5	*staff5	*staff4	*staff4	*staff3	*staff3	*staff2	*staff1
*	*	*	*	*	*	*group1	*	*group1	*	*group1	*	*	*
*I"Fundamento.	*	*I"Violino Secundo.	*	*I"Violino Primo.	*	*I"Baſso.	*	*I"Canto 2do:	*	*I"Canto 1mo:	*	*I"Cornu 2do. in G.	*I"Cornu 1mo. in G.
*I'org	*	*I'vl 2	*	*I'vl 1	*	*I'B	*	*I'S 2	*	*I'S 1	*	*I'cor 2 in G	*I'cor 1 in G
*Iorgan	*	*Ivioln	*	*Ivioln	*	*Ibass	*	*Isoprn	*	*Isoprn	*	*Icor	*Icor
*ICklav	*	*ICstr	*	*ICstr	*	*ICvox	*	*ICvox	*	*ICvox	*	*ICbras	*ICbras
*clefF4	*	*clefG2	*	*clefG2	*	*clefF4	*	*clefC1	*	*clefC1	*	*clefG2	*clefG2
*	*	*	*	*	*	*	*	*	*	*	*	*ITrd3c5	*ITrd3c5
*k[f#]	*	*k[f#]	*	*k[f#]	*	*k[f#]	*	*k[f#]	*	*k[f#]	*	*k[f#]	*k[f#]
*G:	*	*G:	*	*G:	*	*G:	*	*G:	*	*G:	*	*G:	*G:
*M3/4	*	*M3/4	*	*M3/4	*	*M3/4	*	*M3/4	*	*M3/4	*	*M3/4	*M3/4
*all\right	*	*all\right	*	*all\right	*	*all\right	*	*all\right	*	*all\right	*	*all\right	*all\right
=1	=1	=1	=1	=1	=1	=1	=1	=1	=1	=1	=1	=1	=1
*	*	*	*	*	*	*2\right	*	*2\right	*	*2\right	*	*	*
!LO:TX:a:B:t=Largo	!	!LO:TX:a:B:t=Largo.	!	!LO:TX:a:B:t=Largo.	!	!LO:TX:a:B:t=Largro	!	!LO:TX:a:B:t=Largo.	!	!LO:TX:a:B:t=Largo	!	!LO:TX:a:B:t=Largo.	!LO:TX:a:B:t=Largo
2GG/	.	(2d 2B/	.	4g/	.	2G\	A-	2g\	A-	2b\	A-	0.r	0.r
.	.	.	.	8g/L	.	.	.	.	.	.	.	.	.
.	.	.	.	16a/L	.	.	.	.	.	.	.	.	.
.	.	.	.	16b/JJ	.	.	.	.	.	.	.	.	.
4D/	.	4d 4A/)	.	16g/LL	.	4D\	-gnus	4f#\	-gnus	4a\	-gnus	.	.
.	.	.	.	16f#/	.	.	.	.	.	.	.	.	.
.	.	.	.	16e/	.	.	.	.	.	.	.	.	.
.	.	.	.	16d/JJ	.	.	.	.	.	.	.	.	.
=2	=2	=2	=2	=2	=2	=2	=2	=2	=2	=2	=2	=2	=2
2GG/	.	(2d 2B/	.	8.g/L	.	4G\	De-	4g/	De-	4b\	De-	.	.
.	.	.	.	16f#/Jk	.	.	.	.	.	.	.	.	.
.	.	.	.	8g/L	.	4G\	-i	4g/	-i	4b\	-i	.	.
.	.	.	.	16a/L	.	.	.	.	.	.	.	.	.
.	.	.	.	16b/JJ	.	.	.	.	.	.	.	.	.
4D/	.	4d 4A/)	.	16g/LL	.	4D\	qui	4f#/	qui	4a\	qui	.	.
.	.	.	.	16f#/	.	.	.	.	.	.	.	.	.
.	.	.	.	16e/	.	.	.	.	.	.	.	.	.
.	.	.	.	16d/JJ	.	.	.	.	.	.	.	.	.
=3	=3	=3	=3	=3	=3	=3	=3	=3	=3	=3	=3	=3	=3
2.GG/	.	2.d 2.B/	.	8.g/L	.	4G\	tol-	4g/	tol-	4b\	tol-	.	.
.	.	.	.	16f#/Jk	.	.	.	.	.	.	.	.	.
.	.	.	.	16g\LL	.	4G\	-lis	4g/	-lis	4b\	-lis	.	.
.	.	.	.	16a\	.	.	.	.	.	.	.	.	.
.	.	.	.	16b\	.	.	.	.	.	.	.	.	.
.	.	.	.	16cc#X\JJ	.	.	.	.	.	.	.	.	.
.	.	.	.	16dd\LL	.	4G\	pec-	4g/	pec-	4b\	pec-	.	.
.	.	.	.	16cc#\J	.	.	.	.	.	.	.	.	.
.	.	.	.	8dd\J	.	.	.	.	.	.	.	.	.
=4	=4	=4	=4	=4	=4	=4	=4	=4	=4	=4	=4	=4	=4
2GG/	.	(2d 2B/	.	8dd\L	.	2G\	-ca-	2g/	-ca-	2b\	-ca-	.	.
.	.	.	.	8b\J	.	.	.	.	.	.	.	.	.
.	.	.	.	8r	.	.	.	.	.	.	.	.	.
.	.	.	.	16a/LL	.	.	.	.	.	.	.	.	.
.	.	.	.	16b/JJ	.	.	.	.	.	.	.	.	.
!	!	!	!	!LO:LB:g=original	!	!	!	!	!	!	!	!	!
4D/	.	4d 4A/)	.	16g/LL	.	4D/	-ta	4f#/	-ta	4a\	-ta	.	.
.	.	.	.	16f#/	.	.	.	.	.	.	.	.	.
.	.	.	.	16e/	.	.	.	.	.	.	.	.	.
.	.	.	.	16d/JJ	.	.	.	.	.	.	.	.	.
=5	=5	=5	=5	=5	=5	=5	=5	=5	=5	=5	=5	=5	=5
2.GG/	.	2.d 2.B/	.	8.g/L	.	4G\	mun-	4g/	mun-	4b\	mun-	0.r	0.r
.	.	.	.	16f#/Jk	.	.	.	.	.	.	.	.	.
.	.	.	.	16g/LL	.	4G\	-di	4g/	-di	4b\	-di	.	.
.	.	.	.	16a/	.	.	.	.	.	.	.	.	.
.	.	.	.	16b/	.	.	.	.	.	.	.	.	.
.	.	.	.	16cc#X/JJ	.	.	.	.	.	.	.	.	.
.	.	.	.	16dd\LL	.	8r	.	8r	.	8r	.	.	.
.	.	.	.	16cc#\J	.	.	.	.	.	.	.	.	.
.	.	.	.	8dd\J	.	8G\	Pec-	8g\	pec-	8b\	pec-	.	.
=6	=6	=6	=6	=6	=6	=6	=6	=6	=6	=6	=6	=6	=6
2GG/	.	(2d 2B/	.	8dd\L	.	2G\	-ca-	2g\	-ca-	2b\	-ca-	.	.
.	.	.	.	8b\J	.	.	.	.	.	.	.	.	.
.	.	.	.	8r	.	.	.	.	.	.	.	.	.
.	.	.	.	16a/LL	.	.	.	.	.	.	.	.	.
.	.	.	.	16b/JJ	.	.	.	.	.	.	.	.	.
4D/	.	4d 4A/)	.	16g/LL	.	4D\	-ta	4f#/	-ta	4a\	-ta	.	.
.	.	.	.	16f#/	.	.	.	.	.	.	.	.	.
.	.	.	.	16e/	.	.	.	.	.	.	.	.	.
.	.	.	.	16d/JJ	.	.	.	.	.	.	.	.	.
=7	=7	=7	=7	=7	=7	=7	=7	=7	=7	=7	=7	=7	=7
*tremolo	*	*	*	*	*	*	*	*	*	*	*	*	*
8GG/L	.	2.d 2.B/	.	4g/	.	4G\	mun-	4g/	mun-	4b\	mun-	.	.
8GG/	.	.	.	.	.	.	.	.	.	.	.	.	.
8GG/	.	.	.	16g/LL	.	4G\	-di	4g/	-di	4b\	-di	.	.
.	.	.	.	16a/	.	.	.	.	.	.	.	.	.
8GG/	.	.	.	16b/	.	.	.	.	.	.	.	.	.
.	.	.	.	16g/JJ	.	.	.	.	.	.	.	.	.
!	!	!	!	!	!	!	!	!	!	!LO:LB:g=original	!	!	!
8GG/	.	.	.	16g/LL	.	8G\	mi-	8g/L	mi-	8b\	mi-	.	.
.	.	.	.	16b/	.	.	.	.	.	.	.	.	.
8GG/J	.	.	.	16dd/	.	8G\	-se-	8g/J	-ſe-	8b\	-se-	.	.
.	.	.	.	16b/JJ	.	.	.	.	.	.	.	.	.
*Xtremolo	*	*	*	*	*	*	*	*	*	*	*	*	*
!	!	!	!	!	!	!LO:LB:g=original	!	!	!	!	!	!	!
=8	=8	=8	=8	=8	=8	=8	=8	=8	=8	=8	=8	=8	=8
2GG/	.	2d 2B/	.	4g/	.	4G\	-re-	4g/	-re-	4b\	-re-	.	.
.	.	.	.	16g/LL	.	4G\	-re	4g/	-re	4b\	-re	.	.
.	.	.	.	16a/	.	.	.	.	.	.	.	.	.
.	.	.	.	16b/	.	.	.	.	.	.	.	.	.
.	.	.	.	16g/JJ	.	.	.	.	.	.	.	.	.
4D/	.	4d 4A/	.	16g/LL	.	4D/	no-	4f#/	no-	4a\	no-	.	.
.	.	.	.	16f#/	.	.	.	.	.	.	.	.	.
.	.	.	.	16e/	.	.	.	.	.	.	.	.	.
.	.	.	.	16d/JJ	.	.	.	.	.	.	.	.	.
!	!	!LO:LB:g=original	!	!LO:LB:g=original	!	!	!	!	!	!	!	!	!
=9	=9	=9	=9	=9	=9	=9	=9	=9	=9	=9	=9	=9	=9
2.GG/	.	2.d 2.B/	.	4g/	.	4G\	-bis	4g/	-bis	4b\	-bis	0.r	0.r
.	.	.	.	16g/LL	.	4G\	mi-	4g/	mi-	4b\	mi-	.	.
.	.	.	.	16a/	.	.	.	.	.	.	.	.	.
.	.	.	.	16b/	.	.	.	.	.	.	.	.	.
.	.	.	.	16g/JJ	.	.	.	.	.	.	.	.	.
.	.	.	.	16g\LL	.	4G\	-se-	4g/	-se-	4b\	-se-	.	.
.	.	.	.	16b\	.	.	.	.	.	.	.	.	.
.	.	.	.	16dd\	.	.	.	.	.	.	.	.	.
.	.	.	.	16b\JJ	.	.	.	.	.	.	.	.	.
=10	=10	=10	=10	=10	=10	=10	=10	=10	=10	=10	=10	=10	=10
2GG/	.	2d 2B/	.	4g/	.	4G\	-re-	4g/	-re-	4b\	-re-	.	.
.	.	.	.	16g/LL	.	4G\	-re	4g/	-re	4b\	-re	.	.
.	.	.	.	16a/	.	.	.	.	.	.	.	.	.
.	.	.	.	16b/	.	.	.	.	.	.	.	.	.
.	.	.	.	16g/JJ	.	.	.	.	.	.	.	.	.
4D/	.	4d 4A/	.	16g/LL	.	4D/	no-	4f#/	no-	4a\	no-	.	.
.	.	.	.	16f#/	.	.	.	.	.	.	.	.	.
.	.	.	.	16e/	.	.	.	.	.	.	.	.	.
.	.	.	.	16d/JJ	.	.	.	.	.	.	.	.	.
!LO:LB:g=original	!	!	!	!	!	!	!	!	!	!	!	!	!
=11	=11	=11	=11	=11	=11	=11	=11	=11	=11	=11	=11	=11	=11
4GG/	.	4d 4B/	.	4g/	.	4G\	-bi	4g/	-bis	4b\	-bis	.	.
!	!	!	!	!	!	!	!	!	!	!LO:TX:a:i:t=Solo	!	!	!
4r	.	4r	.	4r	.	4r	.	4r	.	4b\	a-	.	.
4r	.	4r	.	4r	.	4r	.	4r	.	8a\	.	.	.
.	.	.	.	.	.	.	.	.	.	8g\	-gnus	.	.
!	!	!	!	!	!	!	!	!LO:LB:g=original	!	!	!	!	!
=12	=12	=12	=12	=12	=12	=12	=12	=12	=12	=12	=12	=12	=12
8r	.	8r	.	8r	.	0.r	.	0.r	.	4dd\	De-	.	.
!	!LO:DY:t=pia.	!	!LO:DY:t=pia.	!	!LO:DY:t=pia	!	!	!	!	!	!	!	!
8D/	p	8f#/	p	8a/	p	.	.	.	.	.	.	.	.
*tremolo	*	*tremolo	*	*tremolo	*	*	*	*	*	*	*	*	*
8D/L	.	8f#/L	.	8a/L	.	.	.	.	.	4a\	-i	.	.
8D/	.	8f#/	.	8a/	.	.	.	.	.	.	.	.	.
8D/	.	8f#/	.	8a/	.	.	.	.	.	8r	.	.	.
8D/J	.	8f#/J	.	8a/J	.	.	.	.	.	8a\	qui	.	.
*Xtremolo	*	*Xtremolo	*	*Xtremolo	*	*	*	*	*	*	*	*	*
!	!	!	!	!	!	!	!	!	!	!LO:LB:g=original	!	!	!
=13	=13	=13	=13	=13	=13	=13	=13	=13	=13	=13	=13	=13	=13
8r	.	8r	.	8r	.	.	.	.	.	4g/	tol-	0.r	0.r
8AA/	.	8e/	.	8g/	.	.	.	.	.	.	.	.	.
*tremolo	*	*tremolo	*	*tremolo	*	*	*	*	*	*	*	*	*
8AA/L	.	8e/L	.	8g/L	.	.	.	.	.	8g/	-lis	.	.
8AA/	.	8e/	.	8g/	.	.	.	.	.	8b\	pec-	.	.
8AA/	.	8e/	.	8g/	.	.	.	.	.	8a\	-ca-	.	.
8AA/J	.	8e/J	.	8g/J	.	.	.	.	.	8g\	-ta	.	.
*Xtremolo	*	*Xtremolo	*	*Xtremolo	*	*	*	*	*	*	*	*	*
=14	=14	=14	=14	=14	=14	=14	=14	=14	=14	=14	=14	=14	=14
8r	.	8r	.	8r	.	.	.	.	.	4gT/	mun-	.	.
!	!	!	!	!LO:TX:t=P:problem=mixed beam	!	!	!	!	!	!	!	!	!
8AA/	.	8e/L	.	8g/L	.	.	.	.	.	.	.	.	.
*tremolo	*	*	*	*	*	*	*	*	*	*	*	*	*
8D/L	.	8d/	.	8f#/	.	.	.	.	.	4f#/	-di	.	.
8D/	.	8d/	.	8f#/	.	.	.	.	.	.	.	.	.
8D/	.	8f#/	.	8dd\	.	.	.	.	.	8dd\	mi-	.	.
8D/J	.	8dd/J	.	8ff#\J	.	.	.	.	.	8ff#\	-ſe-	.	.
*Xtremolo	*	*	*	*	*	*	*	*	*	*	*	*	*
=15	=15	=15	=15	=15	=15	=15	=15	=15	=15	=15	=15	=15	=15
*	*	*2\right	*	*2\right	*	*	*	*	*	*	*	*	*
*	*	*tremolo	*	*tremolo	*	*	*	*	*	*	*	*	*
4A\	.	8cc#X\L	.	8ee\L	.	.	.	.	.	2ee\	-re-	.	.
.	.	8cc#\	.	8ee\	.	.	.	.	.	.	.	.	.
8r	.	8cc#\	.	8ee\	.	.	.	.	.	.	.	.	.
8ryy	.	8cc#\J	.	8ee\J	.	.	.	.	.	.	.	.	.
*	*	*Xtremolo	*	*Xtremolo	*	*	*	*	*	*	*	*	*
4G#X\	.	8b\L	.	8dd\L	.	.	.	.	.	4dd\	-re	.	.
.	.	8b\J	.	8dd\J	.	.	.	.	.	.	.	.	.
!	!	!	!	!LO:LB:g=original	!	!	!	!	!	!	!	!	!
=16	=16	=16	=16	=16	=16	=16	=16	=16	=16	=16	=16	=16	=16
4A\	.	4a/	.	4cc#X\	.	0.r	.	0.r	.	4cc#X\	no-	.	.
4AA/	.	4a/	.	4a\	.	.	.	.	.	4a\	-bis	.	.
4r	.	4r	.	4r	.	.	.	.	.	8a\	mi-	.	.
.	.	.	.	.	.	.	.	.	.	8a\	-ſe-	.	.
!	!	!LO:LB:g=original	!	!	!	!	!	!	!	!	!	!	!
=17	=17	=17	=17	=17	=17	=17	=17	=17	=17	=17	=17	=17	=17
!LO:TX:a:t=2.	!	!	!	!	!	!	!	!	!	!	!	!	!
1.r	.	8g/	.	8b\	.	.	.	.	.	4.b\	-re-	0.r	0.r
.	.	8r	.	8r	.	.	.	.	.	.	.	.	.
.	.	8g/	.	8b\	.	.	.	.	.	.	.	.	.
.	.	8r	.	8r	.	.	.	.	.	16dd\LL	.	.	.
.	.	.	.	.	.	.	.	.	.	16cc#X\JJ	.	.	.
.	.	8a/	.	8cc#X\	.	.	.	.	.	8cc#\L	.	.	.
.	.	8r	.	8r	.	.	.	.	.	16ee\L	.	.	.
.	.	.	.	.	.	.	.	.	.	16dd\JJ	.	.	.
!	!	!	!	!	!	!	!	!	!	!LO:LB:g=original	!	!	!
=18	=18	=18	=18	=18	=18	=18	=18	=18	=18	=18	=18	=18	=18
.	.	8b\	.	8dd\	.	.	.	.	.	4.dd\	.	.	.
.	.	8r	.	8r	.	.	.	.	.	.	.	.	.
.	.	8b\	.	8dd\	.	.	.	.	.	.	.	.	.
.	.	8r	.	8r	.	.	.	.	.	16ff#\LL	.	.	.
.	.	.	.	.	.	.	.	.	.	16ee\JJ	.	.	.
.	.	8cc#X\	.	8ee\	.	.	.	.	.	8ee\L	.	.	.
.	.	8r	.	8r	.	.	.	.	.	16gg\L	.	.	.
.	.	.	.	.	.	.	.	.	.	16ff#\JJ	.	.	.
=19	=19	=19	=19	=19	=19	=19	=19	=19	=19	=19	=19	=19	=19
!LO:TX:t=P:problem=mixed beam	!	!	!	!	!	!	!	!	!	!	!	!	!
8D\L	.	8dd\L	.	8ff#\L	.	.	.	.	.	8ff#\L	.	.	.
8G\	.	16ee\L	.	16gg\L	.	.	.	.	.	16gg\L	-re	.	.
.	.	16cc#X\JJ	.	16ee\JJ	.	.	.	.	.	16ee\JJ	.	.	.
*	*	*tremolo	*	*tremolo	*	*	*	*	*	*	*	*	*
8A\	.	16dd\LL	.	16ff#\LL	.	.	.	.	.	4dd\	no-	.	.
.	.	16dd\	.	16ff#\	.	.	.	.	.	.	.	.	.
8A\	.	16dd\	.	16ff#\	.	.	.	.	.	.	.	.	.
.	.	16dd\JJ	.	16ff#\JJ	.	.	.	.	.	.	.	.	.
8AA/	.	16cc#\LL	.	16ee\LL	.	.	.	.	.	4cc#Xt\	.	.	.
.	.	16cc#\	.	16ee\	.	.	.	.	.	.	.	.	.
8AA/J	.	16cc#\	.	16ee\	.	.	.	.	.	.	.	.	.
.	.	16cc#\JJ	.	16ee\JJ	.	.	.	.	.	.	.	.	.
*	*	*Xtremolo	*	*Xtremolo	*	*	*	*	*	*	*	*	*
=20	=20	=20	=20	=20	=20	=20	=20	=20	=20	=20	=20	=20	=20
4D/	.	4dd\	.	4dd\	.	2.r	.	2.r	.	4dd\	-bis	.	.
!	!	!	!LO:DY:t=for	!	!	!	!	!	!	!	!	!	!
8D/L	.	8b/L	f	4r	.	.	.	.	.	4r	.	.	.
8C/	.	8a/	.	.	.	.	.	.	.	.	.	.	.
8BB/	.	8g/	.	4r	.	.	.	.	.	4r	.	.	.
8AA/J	.	8f#/J	.	.	.	.	.	.	.	.	.	.	.
!LO:LB:g=original	!	!	!	!	!	!	!	!	!	!	!	!	!
=21	=21	=21	=21	=21	=21	=21	=21	=21	=21	=21	=21	=21	=21
*2\right	*	*	*	*tremolo	*	*	*	*	*	*	*	*	*
!LO:TX:t=P:problem=mixed beam	!	!	!	!	!	!	!	!	!	!	!	!	!
8GG/L	.	8g/L	.	8gg\L	.	4G\	A-	4b\	A-	4gg\	A-	4g\	4b\
8G\J	.	8b/J	.	8gg\	.	.	.	.	.	.	.	.	.
*tremolo	*	*tremolo	*	*	*	*	*	*	*	*	*	*	*
!LO:TX:t=P:problem=mixed beam	!	!	!	!	!	!	!	!	!	!	!	!	!
8GG/L	.	8b/L	.	8gg\	.	4G\	-gnus	4b\	-gnus	4gg\	-gnus	4g\	4b\
8G\	.	8b/	.	8gg\	.	.	.	.	.	.	.	.	.
8GG/	.	8b/	.	8gg\	.	4r	.	4r	.	4r	.	4r	4r
8G\J	.	8b/J	.	8gg\J	.	.	.	.	.	.	.	.	.
!	!	!	!	!LO:LB:g=original	!	!	!	!	!	!	!	!	!
=22	=22	=22	=22	=22	=22	=22	=22	=22	=22	=22	=22	=22	=22
!LO:TX:t=P:problem=mixed beam	!	!	!	!	!	!	!	!	!	!	!	!	!
8GG/L	.	8b/L	.	8gg\L	.	4G\	De-	4b\	De-	4gg\	De-	4g\	4b\
8G\	.	8b/	.	8gg\	.	.	.	.	.	.	.	.	.
8GG/	.	8b/	.	8gg\	.	4G\	-i	4b\	-i	4gg\	-i	4g\	4b\
8G\	.	8b/	.	8gg\	.	.	.	.	.	.	.	.	.
8GG/	.	8b/	.	8gg\	.	4G\	qui	4b\	qui	4gg\	qui	4g\	4b\
8G\J	.	8b/J	.	8gg\J	.	.	.	.	.	.	.	.	.
!	!	!LO:LB:g=original	!	!	!	!	!	!	!	!	!	!	!
=23	=23	=23	=23	=23	=23	=23	=23	=23	=23	=23	=23	=23	=23
!LO:TX:t=P:problem=mixed beam	!	!	!	!	!	!	!	!	!	!	!	!	!
8GG/L	.	8b\L	.	8gg\L	.	4G\	tol-	4b\	tol-	4gg\	tol-	4g\	4b\
8G\	.	8b\	.	8gg\	.	.	.	.	.	.	.	.	.
8GG/	.	8b\	.	8gg\	.	4G\	-lis	4b\	-lis	4gg\	-lis	4g\	4b\
8G\	.	8b\	.	8gg\	.	.	.	.	.	.	.	.	.
8GG/	.	8b\	.	8gg\	.	4G\	pec-	4b\	pec-	4gg\	pec-	4g\	4b\
8G\J	.	8b\J	.	8gg\J	.	.	.	.	.	.	.	.	.
!	!	!	!	!	!	!	!	!	!	!LO:LB:g=original	!	!	!
=24	=24	=24	=24	=24	=24	=24	=24	=24	=24	=24	=24	=24	=24
*	*	*	*	*	*	*	*	*	*	*	*	*2\right	*2\right
!LO:TX:t=P:problem=mixed beam	!	!	!	!	!	!	!	!	!	!	!	!	!LO:TX:a:t=e
8GG/L	.	8b\L	.	8gg\L	.	2G\	-ca-	2b\	-ca-	2gg\	-ca-	2g\	2b\
8G\	.	8b\	.	8gg\	.	.	.	.	.	.	.	.	.
8GG/	.	8b\	.	8gg\	.	.	.	.	.	.	.	.	.
8G\	.	8b\	.	8gg\	.	.	.	.	.	.	.	.	.
8GG/	.	8b\	.	8gg\	.	4G\	-ta	4b\	-ta	4gg\	-ta	4g\	4b\
8G\J	.	8b\J	.	8gg\J	.	.	.	.	.	.	.	.	.
!	!	!	!	!	!	!LO:LB:g=original	!	!	!	!	!	!	!
=25	=25	=25	=25	=25	=25	=25	=25	=25	=25	=25	=25	=25	=25
8D/L	.	8a/L	.	8ff#\L	.	4D/	mun-	4a\	mun-	4ff#\	mun-	4d/	4a\
8D/	.	8a/	.	8ff#\	.	.	.	.	.	.	.	.	.
8D/	.	8a/	.	8ff#\	.	4D/	-di	4a\	-di	4ff#\	-di	4d/	4a\
8D/	.	8a/	.	8ff#\	.	.	.	.	.	.	.	.	.
8D/	.	8a/	.	8ff#\	.	4r	.	4r	.	4r	.	4r	4r
8D/J	.	8a/J	.	8ff#\J	.	.	.	.	.	.	.	.	.
=26	=26	=26	=26	=26	=26	=26	=26	=26	=26	=26	=26	=26	=26
8D/L	.	8a/L	.	8ff#\L	.	2.D\	Pec-	2.a\	Pec-	2.ff#\	Pec-	2.d/	2.a\
8D/	.	8a/	.	8ff#\	.	.	.	.	.	.	.	.	.
8D/	.	8a/	.	8ff#\	.	.	.	.	.	.	.	.	.
8D/	.	8a/	.	8ff#\	.	.	.	.	.	.	.	.	.
8D/	.	8a/	.	8ff#\	.	.	.	.	.	.	.	.	.
8D/J	.	8a/J	.	8ff#\J	.	.	.	.	.	.	.	.	.
!	!	!	!	!	!	!	!	!	!	!	!	!	!LO:LB:g=original
=27	=27	=27	=27	=27	=27	=27	=27	=27	=27	=27	=27	=27	=27
!	!	!	!	!	!	!	!	!	!	!	!	!LO:TX:t=P:problem=skreślony takt	!
8A\L	.	8g/L	.	8ee\L	.	2A\	-ca-	2g\	-ca-	2ee\	-ca-	2.a\	2a\
8A\	.	8g/	.	8ee\	.	.	.	.	.	.	.	.	.
8A\	.	8g/	.	8ee\	.	.	.	.	.	.	.	.	.
8A\	.	8g/	.	8ee\	.	.	.	.	.	.	.	.	.
8A\	.	8g/	.	8ee\	.	4A\	-ta	4g\	-ta	4ee\	-ta	.	4a\
8A\J	.	8g/J	.	8ee\J	.	.	.	.	.	.	.	.	.
!	!	!	!	!	!	!	!	!	!	!	!	!LO:LB:g=original	!
=28	=28	=28	=28	=28	=28	=28	=28	=28	=28	=28	=28	=28	=28
8AA/L	.	8g/L	.	8ee\L	.	2.AA/	mun-	2.g\	mun-	2.ee\	mun-	2.a\	2.a\
8AA/	.	8g/	.	8ee\	.	.	.	.	.	.	.	.	.
8AA/	.	8g/	.	8ee\	.	.	.	.	.	.	.	.	.
8AA/	.	8g/	.	8ee\	.	.	.	.	.	.	.	.	.
8AA/	.	8g/	.	8ee\	.	.	.	.	.	.	.	.	.
8AA/J	.	8g/J	.	8ee\J	.	.	.	.	.	.	.	.	.
*Xtremolo	*	*Xtremolo	*	*Xtremolo	*	*	*	*	*	*	*	*	*
=29	=29	=29	=29	=29	=29	=29	=29	=29	=29	=29	=29	=29	=29
2D;\	.	2f#;/	.	2.dd;\	.	2.D;\	-di	2.f#;/	-di	2.dd\	-di	2.d;/	2a;\
!	!	!	!	!	!	!	!	!	!	!	!	!LO:TX:b:Bi:t=Finis.	!
!LO:TX:b:i:t=Dona Nobis ut Kyrie,	!	!LO:TX:b:i:t=Dona Nobis ut Kyrie.	!	!LO:TX:b:i:t=Dona nobis ut Kyrie	!	!LO:TX:b:i:t=Dona nobis ut Kyrie	!	!LO:TX:b:i:t=Dona nobis\nut Kyrie	!	!LO:TX:b:i:t=Dona Nobis ut Kyrie	!	!LO:TX:b:i:t=Dona nobis ut Kyrie	!LO:TX:b:i:t=Dona nobis ut Kyrie
4r	.	4ryy	.	.	.	.	.	.	.	.	.	.	4r
==	==	==	==	==	==	==	==	==	==	==	==	==	==
*-	*-	*-	*-	*-	*-	*-	*-	*-	*-	*-	*-	*-	*-
!!!system-decoration: [(s1,s2)][(g1)][(s6,s7)]<s8>
!!!ENC: Kamil Watkowski
!!!END: 2020-08-21
!!!ENC: Andrzej Kubiczek
!!!END: 2021-11-07
